!!!OTL: Es war sich ein adliges M&auml;dchen (1-34), S. 89f
!!!id: K1086
**kern
*clefG2
*k[f#]
*G:
{8d
=1
*M6/8
8b
8a
16g
16g
8g
8f#
16e
16e
=2
4d
8b
4g}
=3
{8d
=4
8b
8a
16g
16g
8g
8f#
16e
16e
=5
4d
8b
4g}
=6
{8dd
=7
*M2/4
4dd
16b
16b
8b
=8
8b
8b
8a
8b
=9
4cc}
8r
=10
{16a
16a
=11
8a
8f#
8d
8dd
=12
8dd
8dd
8cc
8cc
=13
4b}
8r
=14
{8dd
=15
8ee
8dd
8b
16b
16b
=16
8b
8b
8a
8b
=17
4cc}
8r
=18
{16a
16a
=19
8a
8f#
8d
8dd
=20
8dd
8dd
8cc
8cc
=21
4b}
8r
==
*-
!!!minrhy: 16
!!!meters: 2/4 6/8 ]  ZZ[6
!!!cut: Es war sich ein adliges M&auml;dchen (1-34), S. 89f
!!!reg: Luxemburg
!!!trd: KINTZELE, Guillaume: An der Ucht, Bd. 1, Luxemburg 1926
!!!rhy1: X_  X_X_XXX_X_XX  X__X_X__
!!!rhy2: X_  X_X_XXX_X_XX  X__X_X__
!!!key: K1086  16  G 2/4 6/8 ]  ZZ[6
!!!mod: HEPTATONIK IONISCH]  AMBITUS[9
!!!kad: 114343
!!!akz: 31-51_31-51_534_253_634_253_
!!!fot: 'a__a__b__c__bw_c__
!!!for: 'a__a__b__c__d__c__
!!!fok: '^a_^a_Vd_/__Vd_/__
!! PHRAS[AUFTAKTIG]
!!!fkt: Standesunterschied, Suizid
!!!bem: in der Quelle mit einer 2. Stimme versehen
!! KINTZELE
!! PR[29] 2K[5] 2G[13] 3K[5] 3G[8] 4A[3] 4Ü[0] 5A[0] 6K[0] 6G[0]
!! 7K[0] 7G[0] 8A[0] MEHR[0] SI[34] ABS[38] SR[18] SP[16]
!! ST[8] 2k[3] 2g[21] 3k[8] 3g[3] 4d[3] 4ü[0] 5d[0] 6k[0] 6g[0]
!! 7k[0] 7g[0] 8d[0] mehr[0] si[37] dm[-3] sr[24] sp[13]
!! 1F[53] 2F[40] 3F[5] 4F[0] LF[0] 2P[3] 3P[0] 4P[0] TRI[0] DF[4] AB[40]
!! TF[0] U3K[0] U3[0] U4[0] U4Ü[0] U5[0] U6K[0] U6[0] U7K[0] U7[0]
!! N1[23] N2K[0] N2[3] N3K[0] N3[13] N4[18] N4Ü[0] N5[28] N6K[0] N6[10]
!!!n7k: 0] N7[3] O1[3] O2K[0] O2[0] O3K[0] O3[0] HÖ[0
!!!RNB: symbol: &auml;      = a umlaut  (UTF-8: Å„)
